client/src/assets/generatedImages/sprite/VOICE_ROOM_ICON.svg

<svg viewBox="0 0 24 24"><path fill-rule="evenodd" clip-rule="evenodd" d="M11.383 3.07904C11.009 2.92504 10.579 3.01004 10.293 3.29604L6 8.00204H3C2.45 8.00204 2 8.45304 2 9.00204V15.002C2 15.552 2.45 16.002 3 16.002H6L10.293 20.71C10.579 20.996 11.009 21.082 11.383 20.927C11.757 20.772 12 20.407 12 20.002V4.00204C12 3.59904 11.757 3.23204 11.383 3.07904ZM14 5.00195V7.00195C16.757 7.00195 19 9.24595 19 12.002C19 14.759 16.757 17.002 14 17.002V19.002C17.86 19.002 21 15.863 21 12.002C21 8.14295 17.86 5.00195 14 5.00195ZM14 9.00195C15.654 9.00195 17 10.349 17 12.002C17 13.657 15.654 15.002 14 15.002V13.002C14.551 13.002 15 12.553 15 12.002C15 11.451 14.551 11.002 14 11.002V9.00195Z"/></svg>

<svg viewBox="0 0 24 24"><path fill-rule="evenodd" d="M11.4 3a1 1 0 0 0-1.1.3L6 8H3a1 1 0 0 0-1 1v6c0 .6.5 1 1 1h3l4.3 4.7A1 1 0 0 0 12 20V4a1 1 0 0 0-.6-1ZM14 5v2a5 5 0 0 1 0 10v2a7 7 0 0 0 0-14Zm0 4a3 3 0 0 1 0 6v-2a1 1 0 0 0 0-2V9Z" clip-rule="evenodd"/></svg>
